archdroid-icon-theme/Archdroid-Pink/places/scalable/folder-arch.svg

<svg fill="#E91E63" height="48" viewBox="0 0 48 48" width="48" xmlns="http://www.w3.org/2000/svg"><path d="m8 8c-2.21 0-3.980469 1.79-3.980469 4l-.019531 24c0 2.21 1.79 4 4 4h32c2.21 0 4-1.79 4-4v-20c0-2.21-1.79-4-4-4h-16l-4-4zm21 9c.014502.034033.024732.056178.039062.089844.327333.768953.612453 1.439164.888672 2.08789.004115.009659.007607.021602.011719.03125.034854.081779.076583.178607.111328.259766.071062.163417.171578.398143.238281.550781.723247 1.668228 1.523931 3.393907 3.03125 6.324219.06583.128399.149058.288299.21875.423828.805273 1.5574 1.781506 3.406837 3.06836 5.802734-.675638-.405662-1.543295-.769417-2.753906-1.083984 1.761288.90401 2.62335 1.739244 3.451172 2.38086.525544.974524 1.078754 1.997685 1.695312 3.132812-3.126436-1.804948-5.559412-2.927878-7.824219-3.371094.075445-.341244.119407-.709279.128907-1.091797.050296-2.03078-.924364-3.763106-2.175782-3.86914s-2.307122 1.455549-2.357422 3.486328l-.003906.099609c-.003789.476366.048534.935206.146484 1.357422-2.289445.430728-4.745101 1.559175-7.914062 3.388672 1.962073-3.525447 3.407885-6.175687 4.554688-8.326172.800119-1.500808 1.445407-2.7472 1.974609-3.802734.267001-.532623.541941-1.07868.759765-1.533203.001997.001678.00386.004181.00586.005859.118029.09907.253347.195174.386719.292969.053158.039014.09848.078345.154297.117187.052648.036592.11674.072926.171874.109375.150295.099522.300398.200176.470704.298828.00133.00077.002574.001184.003906.001953.232881.134777.48442.268628.759766.402344.276343.134081.575668.266676.90039.400391-.299821-.209768-.57054-.413857-.818359-.611328-.001949-.001554-.003914-.002353-.00586-.003907-.745397-.594481-1.276369-1.132216-1.730468-1.613281-.002551-.002702-.00722-.005114-.009766-.007812.991143-2.117702 1.531654-3.547887 2.421875-5.730469z" fill="#E91E63"/></svg>

<svg fill="#E91E63" height="48" version="1.1" viewBox="0 0 48 48" width="48" xmlns="http://www.w3.org/2000/svg"><path d="M8 8C5.79 8 4.019531 9.79 4.019531 12L4 36C4 38.21 5.79 40 8 40L40 40C42.21 40 44 38.21 44 36L44 16C44 13.79 42.21 12 40 12L24 12 20 8 8 8zM29 17C29.014502 17.034033 29.024732 17.056178 29.039062 17.089844 29.366395 17.858797 29.651515 18.529008 29.927734 19.177734 29.931849 19.187393 29.935341 19.199336 29.939453 19.208984 29.974307 19.290763 30.016036 19.387591 30.050781 19.46875 30.121843 19.632167 30.222359 19.866893 30.289062 20.019531 31.012309 21.687759 31.812993 23.413438 33.320312 26.34375 33.386142 26.472149 33.46937 26.632049 33.539062 26.767578 34.344335 28.324978 35.320568 30.174415 36.607422 32.570312 35.931784 32.16465 35.064127 31.800895 33.853516 31.486328 35.614804 32.390338 36.476866 33.225572 37.304688 33.867188 37.830232 34.841712 38.383442 35.864873 39 37 35.873564 35.195052 33.440588 34.072122 31.175781 33.628906 31.251226 33.287662 31.295188 32.919627 31.304688 32.537109 31.354984 30.506329 30.380324 28.774003 29.128906 28.667969 27.877488 28.561935 26.821784 30.123518 26.771484 32.154297L26.767578 32.253906C26.763789 32.730272 26.816112 33.189112 26.914062 33.611328 24.624617 34.042056 22.168961 35.170503 19 37 20.962073 33.474553 22.407885 30.824313 23.554688 28.673828 24.354807 27.17302 25.000095 25.926628 25.529297 24.871094 25.796298 24.338471 26.071238 23.792414 26.289062 23.337891 26.291059 23.339569 26.292922 23.342072 26.294922 23.34375 26.412951 23.44282 26.548269 23.538924 26.681641 23.636719 26.734799 23.675733 26.780121 23.715064 26.835938 23.753906 26.888586 23.790498 26.952678 23.826832 27.007812 23.863281 27.158107 23.962803 27.30821 24.063457 27.478516 24.162109 27.479846 24.162879 27.48109 24.163293 27.482422 24.164062 27.715303 24.298839 27.966842 24.43269 28.242188 24.566406 28.518531 24.700487 28.817856 24.833082 29.142578 24.966797 28.842757 24.757029 28.572038 24.55294 28.324219 24.355469 28.32227 24.353915 28.320305 24.353116 28.318359 24.351562 27.572962 23.757081 27.04199 23.219346 26.587891 22.738281 26.58534 22.735579 26.580671 22.733167 26.578125 22.730469 27.569268 20.612767 28.109779 19.182582 29 17z"/></svg>
